X:822
T:Callum Berg
C:Joe Buchanan's Scottish Tome - Page 397.0
I:397 0
Z:Carl Allison
R:Strathspey
L:1/8
M:4/4
K:F
F/>D/ | "F"C/>D/F/>G/ "F"FF/>G/ | "F"A/>F/A/>c/ "B7"dc  |
"Gm"d/>G/G/>G/ A/>G/G/>G/  | "Gm"A/>G/A/>c/ "C7"dc/>B/  |
"F"A/>c/c/>d/ "F7"ff/>e/  | "Bb"d/>A/c/>d/ "F"dc/>A/  |
"Dm"F/>F/"Bm"F/>F/ "C7"GF/>G/  | "F"A"Bb"F F :|
e/ | "F"f/>f/f/>e/ d/>c/A/>c/  | "F"d/>c/d/<f/ dc/>A/  |
"Gm"G/>G/G/>G/ A/>G/G/>G/  | "Gm"A/>G/A/>c/ "C7"dc/>B/  |
"F"A/>c/c/>d/ "F7"ff/>e/  | "Bb"d/>A/c/>d/ "F"dc/>A/  |
"Dm"F/>F/"Bm"F/>F/ "C7"GF/>G/  | "F"A"Bb"F "F"F :|
[K:G]G/>E/  | "G"D/>E/G/>A/ GG/>G/ | "G"B/>G/B/>d/ "Em"ed |
"Am"e/>A/A/>A/ B/>A/A/>A/  | "Am"B/>A/B/>d/ "D7"ed/>c/  |
"G"B/>d/d/>e/ "G7"gg/>f/ | "C"e/>d/e/>g/ "G"ed/>B/  |
%%newpage
T:Callum Berg(cont)
"Em"G>G"Cm"G>G "D7"AG/>A/ | "G"BG "G"G3/2 :|
f/ | "G"g/>g/g/>f/ "G7"e/>d/B/>d/  | "G"e/>d/e/>g/ ed/>e/  |
"Am"g/>A/A/>A/ B/>A/A/>A/  | "Am"B/>A/B/>d/ "E7"ed/>e/ |
"G"g/>a/b/>g/ "G7"a/>g/e/>d/ | "C"e/>g/g/>g/ "G"g/>e/d/>e/  |
"Em"g/>G/"Cm"G/>B/ "D7"AG/>A/ | "G"B"C"G "G"G :|

